X:1
T:Raise, Raise the Ensign
T:Raise, Raise the Ensign
T:Louis D. Eichhorn
T:John Bell, 1904
T:Public Domain Courtesy of the Cyber Hymnal™
T:Public Domain Courtesy of the Cyber Hymnal™
C:Louis D. Eichhorn
Z:Public Domain
Z:Courtesy of the Cyber Hymnal™
%%score ( 1 2 ) ( 3 4 ) ( 5 6 )
L:1/8
Q:1/4=103
M:4/4
K:F
V:1 treble 
V:2 treble 
V:3 treble 
V:4 treble 
V:5 bass 
V:6 bass 
V:1
 c2 F2 A2 ^G2 | A3 E (G2 F2) x | c2 F2 A2 (BA) | A3 G G4 x | c2 F2 A2 (Bc) | B2 (AG) (F2 E2) | %6
w: 1.~Great, and high, and|ho- ly, Lord, *|Heav’n and earth are *|full of Thee;|Spread a- broad Thy *|pre- cious * word, *|
w: 2.~Why in dark- ness,|still and deep, *|Should the hea- then *|na- tions lie,|Af- ric’s strick- en *|daugh- ters * weep, *|
w: 3.~May Thy Spir- it|pierce the gloom, *|Scat- ter night and *|mist a- far;|Save the hea- then *|from their * doom, *|
 F2 c2 (cB) (FG) | A2 G2 F4 ||"^Refrain" [Bc]2 [Ad]>[Ge] [Ad]2 [Ac]2 | [GB]2 [Ac]>[GB] [FA]4 | %10
w: Let the world * Thy *|glo- ry see.|||
w: In- dia’s sons * no *|light des- cry?|||
w: By the ris- * ing *|Morn- ing Star.|||
 [CA]2 [EA]>[E=B] [Ec]2 [Ad]2 | [^Ge]3 [=Bd] c4 x2 | [Ac]2 [Ad]>[Ae] [Bd]2 [Bc]2 | %13
w: |||
w: |||
w: |||
 [Ac]2 (d_e) [FBd]4 | [Fd]2 [G=e]>[^Gf] [Af]2 cB | A2 [Ec]2 [CFc]4 |] %16
w: |||
w: |||
w: |||
V:2
 x8 | x9 | x8 | x9 | x8 | x8 | x8 | x8 || x8 | x8 | x8 | x4 (A2 _B2) x2 | x8 | x2 A2 x4 | x6 (cB) | %15
 A2 x6 |] %16
V:3
 [Cc]2 [CF]2 [FA]2 [F^G]2 | A3 z G (G2 F2) | [CEc]2 [DF]2 [EA]2 (BA) | A3 z G [CEG]4 | %4
 [CFc]2 [C_EF]2 [CDA]2 (Bc) | [B,DB]2 (AG) (F2 E2) | [CF]2 [CFc]2 (cB) [_EF_d]2 | %7
 [CFc]2 [EB]2 A2 [Ac]2 || x8 | x8 | x8 | x10 | x8 | x8 | x8 | x8 |] %16
V:4
 x8 | (F2 E2) C4 x | x6 ^C2 | [DF]2 [DF]2 x5 | x6 [CD]2 | x2 B,2 _D4 | x4 _D2 x2 | x4 F4 || x8 | %9
 x8 | x8 | x10 | x8 | x8 | x8 | x8 |] %16
V:5
 [F,A,]2 A,2 [D,A,]2 [_D,=B,]2 | (C2 B,2) (B,2 A,2) x | [A,,A,]2 A,2 [^C,A,]2 [A,,A,]2 | %3
w: ~ ~ ~ ~|~ * ~ *|~ ~ ~ ~|
 [D,A,]2 [D,=B,]2 [C,_B,]4 x | [F,A,]2 A,2 [^F,A,]2 [D,F,]2 | [G,,G,]2 [B,,G,]2 (B,2 G,2) | %6
w: ~ ~ ~|~ ~ ~ ~|~ ~ ~ *|
 [A,,A,]2 [D,A,]2 [B,,G,]2 (B,G,) | [C,A,]2 (G,C) [F,C]4 || [C,C]2 C>C [F,C]2 [F,C]2 | %9
w: ~ ~ ~ ~ *|~ ~ * ~|Raise, raise the en- sign|
 [E,C]2 [C,C]>[C,C] [F,C]4 | [E,A,]2 [E,C]>[E,D] [A,C]2 (=B,A,) | =B,2 (z E4) x3 | %12
w: far, far and wide,|Out o- ver mount- ain, *|hill *|
 (FC) [F,D]>[F,E] D2 [E,C]2 | (C_E) (DC) [B,,B,]4 | [B,D]2 [=B,D]>[B,D] C2 CB, | %15
w: and * plain! Tell, tell of|Christ, * the * Cru-|ci- fied, Bring all the world|
 A,2 [G,B,]2 [F,A,]4 |] %16
w: to own His|
V:6
 x2 (F,E,) x4 | C,4 F,4 x | x2 (^C,D,) x4 | x9 | x2 (C,^F,) x4 | x4 B,,4 | x6 B,,2 | x2 C,2 x4 || %8
 x2 C>C x4 | x8 | x6 F,2 | E,3 (E2 E,) (A,2 G,2) | F,2 x (G, F,) x3 | F,2 F,2 x4 | x4 C2 (C=B,) | %15
 A,2 x6 |] %16

